X:1
T:It's Not For Me To Say
T:It's Not For Me to Say
C:Robert Allen
Z:All Rights Reserved
L:1/8
M:2/2
K:F
V:1 treble nm="Voice"
%%MIDI program 52
V:1
 z4 z3 D |"Gm7" GAGD G4- |"C9" G4"C7b9" A4 |"Fmaj7" G4"F6" F4- | F6 z D |"Gm7" GAGD G4- | %6
w: It's|not for me to say|* you|love me,|* It's|not for me to say|
"C9" G2 D2 E2 d2 |"F" c8- |"D7" c2 z2"D7b9" B2 A2 |"Gm" B2 GA"Gm7/F" B2 G2 | %10
w: * you'll al- ways|care.|* Oh but|here for the mo- ment|
"Em7b5" B3 G"A7b9" F2 E2 |"Dm" A8- | A2 A2 G2 F2 |"A" E3 E"F#7" E4- |"Bm7" E2 ^F2"E7" ^G2 E2 | %15
w: I can hold you|fast|* and press you|lips to mine.|* and dream that|
"A" ^C6 E2 |"Gm7" C6"C7" z D |"Gm7" GAGD G4- |"C9" G4"C7b9" A2 c2 |"Fmaj7" G4"F6" F4- | F6 z C | %21
w: love will|last. as|far as I can see,|* this is|heav- en|* and|
"Cm7" FGFC F4- |"F7" F2 G2"F+7" A2 F2 |"Bb""Bbmaj7" D8- |"Bb6" D6 z F | G3 F A3 G | %26
w: speak- ing just for me,|* it's ours to|share.|* Per-|haps the glow of|
"Eb9" B3 A c3 B |"Fmaj7" ABAB"Am7b5" c4- |1"D7" c2 c2"D7b9" B2 A2 ||"G7" GAGD"G+7" G3 A | %30
w: love will grow with|ev- 'ry pass- ing day,|* or we may|nev- er meet a- gain, but|
"C9" G3 A GACD |"F6""Ab+7" F8 |"Gm7" z4"C7" z2 z D :|2"D7" (c2 c2)"D7b9" _e3 d ||"Gm7" cBAB G3 A | %35
w: then It's Not for Me To|Say|It's|* or we may|nev- er meet a- gain but|
"C9" G3 A GACD |"F6" F8- | F6 z2 |] %38
w: then It's Not For Me To|Say.||

